icons/themes/default/unarchive.svg

<svg viewBox="0 0 16 16" fill="none" xmlns="http://www.w3.org/2000/svg">
<path fill-rule="evenodd" clip-rule="evenodd" d="M2.06006 3.34C2.06006 3.1204 2.11462 3.04754 2.13611 3.02605C2.15761 3.00456 2.23046 2.95 2.45006 2.95H13.5701C13.7897 2.95 13.8625 3.00456 13.884 3.02605C13.9055 3.04754 13.9601 3.1204 13.9601 3.34V4.67C13.9601 4.88959 13.9055 4.96245 13.884 4.98394C13.8625 5.00544 13.7897 5.06 13.5701 5.06H2.45006C2.23046 5.06 2.15761 5.00544 2.13611 4.98394C2.11462 4.96245 2.06006 4.88959 2.06006 4.67V3.34ZM2.45006 1.95C2.07632 1.95 1.70418 2.04377 1.42901 2.31894C1.15383 2.59412 1.06006 2.96626 1.06006 3.34V4.67C1.06006 5.04374 1.15383 5.41588 1.42901 5.69105C1.68944 5.95148 2.03672 6.04943 2.39001 6.05918V11.79C2.39001 12.3947 2.63023 12.9746 3.05781 13.4022C3.48539 13.8298 4.06532 14.07 4.67001 14.07H9.12001C9.39616 14.07 9.62001 13.8461 9.62001 13.57C9.62001 13.2939 9.39616 13.07 9.12001 13.07H4.67001C4.33054 13.07 4.00496 12.9351 3.76492 12.6951C3.52487 12.455 3.39001 12.1295 3.39001 11.79V6.06H12.63V7.79C12.63 8.06614 12.8539 8.29 13.13 8.29C13.4061 8.29 13.63 8.06614 13.63 7.79V6.05918C13.9833 6.04945 14.3307 5.9515 14.5911 5.69105C14.8663 5.41588 14.9601 5.04374 14.9601 4.67V3.34C14.9601 2.96626 14.8663 2.59412 14.5911 2.31894C14.3159 2.04377 13.9438 1.95 13.5701 1.95H2.45006ZM10.5457 11.8872C10.7405 11.6915 11.0571 11.6908 11.2528 11.8857L12.63 13.2567V10.01C12.63 9.73385 12.8539 9.50999 13.13 9.50999C13.4061 9.50999 13.63 9.73385 13.63 10.01V13.2529L14.9965 11.8865C15.1917 11.6912 15.5083 11.6912 15.7036 11.8865C15.8988 12.0817 15.8988 12.3983 15.7036 12.5936L13.4836 14.8136C13.2886 15.0085 12.9727 15.0089 12.7773 14.8144L10.5473 12.5944C10.3516 12.3995 10.3509 12.0829 10.5457 11.8872Z" fill="currentColor"/>
</svg>

<svg xmlns="http://www.w3.org/2000/svg" fill="none" viewBox="0 0 16 16">
  <path fill="currentColor" fill-rule="evenodd" d="M2.06 3.34c0-.22.055-.292.076-.314.022-.021.094-.076.314-.076h11.12c.22 0 .293.055.314.076.021.022.076.094.076.314v1.33c0 .22-.055.292-.076.314-.021.021-.094.076-.314.076H2.45c-.22 0-.292-.055-.314-.076-.021-.022-.076-.094-.076-.314V3.34Zm.39-1.39c-.374 0-.746.094-1.021.369-.275.275-.369.647-.369 1.021v1.33c0 .374.094.746.369 1.021.26.26.608.358.961.368v5.731a2.28 2.28 0 0 0 2.28 2.28h4.45a.5.5 0 0 0 0-1H4.67a1.28 1.28 0 0 1-1.28-1.28V6.06h9.24v1.73a.5.5 0 0 0 1 0V6.06c.353-.01.7-.108.961-.369.275-.275.37-.647.37-1.021V3.34c0-.374-.095-.746-.37-1.021-.275-.275-.647-.369-1.02-.369H2.45Zm8.096 9.937a.5.5 0 0 1 .707-.001l1.377 1.37V10.01a.5.5 0 0 1 1 0v3.243l1.366-1.367a.5.5 0 1 1 .708.708l-2.22 2.22a.5.5 0 0 1-.707 0l-2.23-2.22a.5.5 0 0 1-.001-.707Z" clip-rule="evenodd"/>
</svg>
